packages/icons/src/thumb-up.svg

<svg width="24" height="24" viewBox="0 0 24 24" fill="none" xmlns="http://www.w3.org/2000/svg">
<path d="M2.69826 10.08C2.97925 9.74263 3.33086 9.47107 3.72827 9.28445C4.12569 9.09784 4.55922 9.00073 4.99826 8.99998H9.55826L8.99826 7.56998C8.76533 6.94387 8.68776 6.27059 8.7722 5.6079C8.85664 4.94522 9.10057 4.31291 9.48308 3.76521C9.86558 3.21752 10.3752 2.77078 10.9683 2.46333C11.5614 2.15587 12.2202 1.99688 12.8883 1.99998C13.0806 2.00038 13.2688 2.05626 13.4302 2.16091C13.5916 2.26555 13.7194 2.41453 13.7983 2.58998L16.6483 8.99998H18.9983C19.7939 8.99998 20.557 9.31605 21.1196 9.87866C21.6822 10.4413 21.9983 11.2043 21.9983 12V19C21.9983 19.7956 21.6822 20.5587 21.1196 21.1213C20.557 21.6839 19.7939 22 18.9983 22H6.26826C5.56645 21.9997 4.88693 21.7535 4.34794 21.304C3.80894 20.8545 3.44459 20.2303 3.31826 19.54L2.04826 12.54C1.96971 12.1074 1.98722 11.6628 2.09954 11.2377C2.21187 10.8126 2.41626 10.4173 2.69826 10.08ZM16.9983 20H18.9983C19.2635 20 19.5178 19.8946 19.7054 19.7071C19.8929 19.5196 19.9983 19.2652 19.9983 19V12C19.9983 11.7348 19.8929 11.4804 19.7054 11.2929C19.5178 11.1053 19.2635 11 18.9983 11H16.9983V20ZM3.99826 12.18L5.26826 19.18C5.31086 19.4129 5.43475 19.6232 5.61787 19.7734C5.801 19.9235 6.03147 20.0038 6.26826 20H14.9983V10.21L12.2783 4.08998C11.9983 4.17161 11.7383 4.31039 11.5146 4.49757C11.291 4.68474 11.1085 4.91625 10.9789 5.17748C10.8492 5.4387 10.7751 5.72397 10.7612 6.01528C10.7473 6.30659 10.794 6.59762 10.8983 6.86998L11.4283 8.29998C11.5412 8.60224 11.5793 8.92733 11.5394 9.24751C11.4995 9.5677 11.3826 9.87347 11.1989 10.1387C11.0152 10.404 10.77 10.6208 10.4844 10.7708C10.1987 10.9208 9.88093 10.9994 9.55826 11H4.99826C4.85135 10.9997 4.70619 11.0319 4.57311 11.0941C4.44002 11.1563 4.32228 11.2471 4.22826 11.36C4.13193 11.4713 4.06136 11.6025 4.02161 11.7443C3.98185 11.886 3.97388 12.0348 3.99826 12.18Z" fill="black"/>
</svg>

<svg xmlns="http://www.w3.org/2000/svg" width="24" height="24" fill="none" viewBox="0 0 24 24">
  <path fill="#000" d="M2.698 10.08A3 3 0 0 1 4.998 9h4.56l-.56-1.43A4.13 4.13 0 0 1 12.888 2a1 1 0 0 1 .91.59L16.648 9h2.35a3 3 0 0 1 3 3v7a3 3 0 0 1-3 3H6.268a3 3 0 0 1-2.95-2.46l-1.27-7a3 3 0 0 1 .65-2.46Zm14.3 9.92h2a1 1 0 0 0 1-1v-7a1 1 0 0 0-1-1h-2v9Zm-13-7.82 1.27 7a1 1 0 0 0 1 .82h8.73v-9.79l-2.72-6.12a2.11 2.11 0 0 0-1.38 2.78l.53 1.43a2 2 0 0 1-1.87 2.7h-4.56a1 1 0 0 0-.77.36 1 1 0 0 0-.23.82Z"/>
</svg>
